icons/category/icon_category-salary_xxl_white.svg

<svg width="48" height="48" viewBox="0 0 48 48" xmlns="http://www.w3.org/2000/svg"><g fill="none" fill-rule="evenodd"><path d="M0 0h48v48H0z"/><path fill="#FFF" fill-rule="nonzero" opacity=".3" d="M16.929 12.686l18.385 18.385-4.243 4.243-18.385-18.385z"/><path d="M24 37c7.18 0 13-5.82 13-13s-5.82-13-13-13-13 5.82-13 13 5.82 13 13 13zm9.083-25.773s4.077-17.415 7.335-3.66c13.713 3.217-3.675 7.32-3.675 7.32l-3.66-3.66zm-18.33 25.496s-4.01 17.134-7.215 3.6c-13.492-3.164 3.615-7.2 3.615-7.2l3.6 3.6z" stroke="#FFF"/></g></svg>

<?xml version="1.0" encoding="UTF-8"?>
<svg width="48px" height="48px" viewBox="0 0 48 48" version="1.1" xmlns="http://www.w3.org/2000/svg" xmlns:xlink="http://www.w3.org/1999/xlink">
    <!-- Generator: Sketch 48.2 (47327) - http://www.bohemiancoding.com/sketch -->
    <title>icon_category-award_xxl_white</title>
    <desc>Created with Sketch.</desc>
    <defs></defs>
    <g id="Artboard" stroke="none" stroke-width="1" fill="none" fill-rule="evenodd" transform="translate(-118.000000, -86.000000)">
        <g id="icon_category-award_xxl_black-copy" transform="translate(118.000000, 86.000000)">
            <rect id="Rectangle" x="0" y="0" width="48" height="48"></rect>
            <polygon id="Shape" fill="#FFFFFF" fill-rule="nonzero" opacity="0.3" points="16.929 12.686 35.314 31.071 31.071 35.314 12.686 16.929"></polygon>
            <path d="M24,37 C31.18,37 37,31.18 37,24 C37,16.82 31.18,11 24,11 C16.82,11 11,16.82 11,24 C11,31.18 16.82,37 24,37 Z M33.083,11.227 C33.083,11.227 37.16,-6.188 40.418,7.567 C54.131,10.784 36.743,14.887 36.743,14.887 L33.083,11.227 Z M14.753,36.723 C14.753,36.723 10.743,53.857 7.538,40.323 C-5.954,37.159 11.153,33.123 11.153,33.123 L14.753,36.723 Z" id="Shape" stroke="#FFFFFF"></path>
        </g>
    </g>
</svg>
